X:1
T:Title
%%score ( 1 2 ) ( 3 4 )
L:1/8
Q:1/4=68
M:6/8
K:G
V:1 treble nm="Strings 1, Soprano"
V:2 treble 
V:3 bass nm="Strings 1, Bass"
V:4 bass 
V:1
 z3 z2 [B,D] | [DB]2 [DB] AB[Dc] | [DB]3 [DG]2 G | [FA][FA][FA] [FA][GB][Ac] | [GB]3- [GB]2 [B,D] | %5
w: 1.~I~|came~ de filed~ * and~|guilt y~ To~|Je sus~ the~ might y~ to~|save;~ * He~|
 [DB]2 [DB] Bc[=Fd] | [Ec]3 [CE]2 [CE] | [CD][CF][Ec] [DB]2 [CA] | [B,G]6 | [GB]3 [GB]3 | %10
w: took~ my~ sins~ * and~|sor rows,~ And~|beau ty~ for~ ash es~|gave.~||
 [GB]>[DA][EG] [FA]2 [FA] | [Fc]2 [Fc] [Ac]>[GB][FA] | [GB]6 | [GB]3 [Gd]2 [DB] | %14
w: ||||
 [EA]>[EG][CE] [B,D]2[Q:1/4=68] [DG][Q:1/4=12] | [DA]>[DA][Fc] [GB]2 [DA] | [DG]6 |] %17
w: |||
V:2
 x6 | z3 .D3 | x6 | x6 | x6 | z3 .D3 | x6 | x6 | x6 | x6 | x6 | x6 | x6 | x6 | x6 | x6 | x6 |] %17
V:3
 z3 z2 [G,,G,] | z3 .F,3 | [G,,G,]3 [G,,B,]2 [B,,D] | [D,D][D,D][D,D] [D,D]2 [D,D] | %4
 [G,D]3- [G,D]2 [G,,G,] | [G,,G,]2 [G,,G,] [G,,G,][A,,F,][B,,G,] | [C,G,]3 [C,G,]2 [C,G,] | %7
 [D,F,][D,A,][D,F,] [D,G,]2 [D,F,] | [G,,G,]6 | [G,D]3 [G,D]3 | [G,D]>[F,D][E,^C] [D,D]2 [D,D] | %11
 [D,A,]2 [D,A,] [D,D]2 [D,D] | [G,D]6 | [G,D]3 [G,B,]2 G, | [C,G,]>[C,G,][C,G,] [G,,G,]2 [B,,G,] | %15
 [D,F,]>[D,F,][D,A,] [D,G,]2 [D,C] | [G,,G,B,]6 |] %17
V:4
 x6 | [G,,G,]2 [G,,G,] D,-[D,G,][D,A,] | x6 | x6 | x6 | x6 | x6 | x6 | x6 | x6 | x6 | x6 | x6 | %13
 x6 | x6 | x6 | x6 |] %17

